frontend/src/assets/figma/status-icons.svg

<svg preserveAspectRatio="none" width="100%" height="100%" overflow="visible" style="display: block;" viewBox="0 0 86.5043 13.884" fill="none" xmlns="http://www.w3.org/2000/svg">
<g id="Frame 99">
<path id="Mobile Signal" fill-rule="evenodd" clip-rule="evenodd" d="M1.25642 8.67743H2.51285C3.20675 8.67743 3.76927 9.26016 3.76927 9.97901V12.5822C3.76927 13.301 3.20675 13.8837 2.51285 13.8837H1.25642C0.562521 13.8837 0 13.301 0 12.5822V9.97901C0 9.26016 0.562521 8.67743 1.25642 8.67743V8.67743ZM7.11978 6.07427H8.37621C9.07011 6.07427 9.63263 6.65701 9.63263 7.37585V12.5822C9.63263 13.301 9.07011 13.8837 8.37621 13.8837H7.11978C6.42588 13.8837 5.86336 13.301 5.86336 12.5822V7.37585C5.86336 6.65701 6.42588 6.07427 7.11978 6.07427ZM12.9831 3.03726H14.2396C14.9335 3.03726 15.496 3.62 15.496 4.33884V12.5822C15.496 13.301 14.9335 13.8837 14.2396 13.8837H12.9831C12.2892 13.8837 11.7267 13.301 11.7267 12.5822V4.33884C11.7267 3.62 12.2892 3.03726 12.9831 3.03726ZM18.8465 0.000244141H20.1029C20.7968 0.000244141 21.3593 0.58298 21.3593 1.30182V12.5822C21.3593 13.301 20.7968 13.8837 20.1029 13.8837H18.8465C18.1526 13.8837 17.5901 13.301 17.5901 12.5822V1.30182C17.5901 0.58298 18.1526 0.000244141 18.8465 0.000244141V0.000244141Z" fill="var(--fill-0, white)"/>
<path id="Wifi" fill-rule="evenodd" clip-rule="evenodd" d="M40.5831 2.88332C43.3722 2.88344 46.0547 3.96145 48.0761 5.89453C48.2283 6.04377 48.4716 6.04188 48.6215 5.89031L50.0766 4.41319C50.1525 4.33631 50.1948 4.23217 50.1942 4.12382C50.1935 4.01547 50.15 3.91183 50.0732 3.83585C44.7677 -1.27862 36.3976 -1.27862 31.0921 3.83585C31.0152 3.91178 30.9716 4.01538 30.9709 4.12373C30.9702 4.23208 31.0124 4.33625 31.0883 4.41319L32.5437 5.89031C32.6936 6.04211 32.9371 6.044 33.0892 5.89453C35.1108 3.96132 37.7936 2.88331 40.5831 2.88332V2.88332ZM40.5828 7.68912C42.1152 7.68903 43.593 8.26198 44.7289 9.29664C44.8826 9.44349 45.1246 9.4403 45.2743 9.28947L46.7277 7.81235C46.8043 7.73487 46.8467 7.62977 46.8456 7.52055C46.8445 7.41133 46.7999 7.30711 46.7219 7.23121C43.2627 3.99458 37.9058 3.99458 34.4466 7.23121C34.3685 7.30711 34.3239 7.41138 34.3229 7.52063C34.3218 7.62989 34.3645 7.73499 34.4412 7.81235L35.8941 9.28947C36.0439 9.4403 36.2859 9.44349 36.4396 9.29664C37.5747 8.26266 39.0513 7.68976 40.5828 7.68912V7.68912ZM43.3764 11.2147C43.4541 11.138 43.4969 11.0324 43.4947 10.9229C43.4925 10.8134 43.4454 10.7096 43.3647 10.6361C41.7591 9.27016 39.4076 9.27016 37.8021 10.6361C37.7212 10.7095 37.6741 10.8133 37.6718 10.9228C37.6695 11.0323 37.7122 11.1379 37.7899 11.2147L40.3044 13.7668C40.3781 13.8418 40.4785 13.884 40.5834 13.884C40.6882 13.884 40.7887 13.8418 40.8624 13.7668L43.3764 11.2147Z" fill="var(--fill-0, white)"/>
<g id="Battery">
<path id="Combined Shape" d="M81.1105 1.06797C82.5848 1.06816 83.7802 2.26364 83.7804 3.73789V10.1461C83.7804 11.6205 82.5849 12.8158 81.1105 12.816H62.4757C61.0012 12.816 59.8058 11.6206 59.8058 10.1461V3.73789C59.806 2.26352 61.0013 1.06797 62.4757 1.06797H81.1105ZM63.0314 2.18613C61.8519 2.18613 60.8959 3.14244 60.8957 4.32187V9.56016C60.8957 10.7398 61.8518 11.6959 63.0314 11.6959H80.5548C81.7343 11.6957 82.6906 10.7397 82.6906 9.56016V4.32187C82.6903 3.14257 81.7342 2.18634 80.5548 2.18613H63.0314Z" fill="var(--fill-0, #ABABAB)"/>
<path id="Combined Shape_2" d="M84.8695 4.98619C85.8093 5.23471 86.5042 6.10884 86.5043 7.15123C86.5043 8.1936 85.8092 9.06662 84.8695 9.31529V4.98619Z" fill="var(--fill-0, #ABABAB)"/>
<rect id="Rectangle" x="61.9855" y="3.30707" width="19.6156" height="7.27231" rx="1.06796" fill="var(--fill-0, white)"/>
</g>
</g>
</svg>

<svg xmlns="http://www.w3.org/2000/svg" fill="none" overflow="visible" preserveAspectRatio="none" style="display:block" viewBox="0 0 86.504 13.884"><path fill="var(--fill-0, white)" fill-rule="evenodd" d="M1.256 8.677h1.257c.694 0 1.256.583 1.256 1.302v2.603c0 .719-.562 1.302-1.256 1.302H1.256C.563 13.884 0 13.3 0 12.582V9.98c0-.719.563-1.302 1.256-1.302M7.12 6.074h1.256c.694 0 1.257.583 1.257 1.302v5.206c0 .719-.563 1.302-1.257 1.302H7.12c-.694 0-1.257-.583-1.257-1.302V7.376c0-.719.563-1.302 1.257-1.302m5.863-3.037h1.257c.694 0 1.256.583 1.256 1.302v8.243c0 .719-.562 1.302-1.256 1.302h-1.257c-.694 0-1.256-.583-1.256-1.302V4.34c0-.719.562-1.302 1.256-1.302M18.846 0h1.257c.694 0 1.256.583 1.256 1.302v11.28c0 .719-.562 1.302-1.256 1.302h-1.257c-.693 0-1.256-.583-1.256-1.302V1.302C17.59.583 18.153 0 18.846 0m21.737 2.883c2.79 0 5.472 1.078 7.493 3.012a.385.385 0 0 0 .545-.005l1.456-1.477a.41.41 0 0 0-.004-.577 13.66 13.66 0 0 0-18.98 0 .41.41 0 0 0-.005.577l1.456 1.477c.15.152.393.154.545.005a10.84 10.84 0 0 1 7.494-3.012m0 4.806c1.532 0 3.01.573 4.146 1.608a.39.39 0 0 0 .545-.008l1.454-1.477a.41.41 0 0 0-.006-.58 8.973 8.973 0 0 0-12.275 0 .41.41 0 0 0-.006.58l1.453 1.477a.39.39 0 0 0 .546.008 6.16 6.16 0 0 1 4.143-1.608m2.793 3.526a.4.4 0 0 0-.011-.579 4.29 4.29 0 0 0-5.563 0 .4.4 0 0 0-.012.579l2.514 2.552a.39.39 0 0 0 .558 0z" clip-rule="evenodd"/><path fill="var(--fill-0, #ababab)" d="M81.11 1.068a2.67 2.67 0 0 1 2.67 2.67v6.408a2.67 2.67 0 0 1-2.67 2.67H62.477a2.67 2.67 0 0 1-2.67-2.67V3.738a2.67 2.67 0 0 1 2.67-2.67zM63.032 2.186c-1.18 0-2.135.956-2.135 2.136V9.56c0 1.18.956 2.136 2.135 2.136h17.524c1.18 0 2.136-.956 2.136-2.136V4.322c0-1.18-.957-2.136-2.136-2.136zm21.838 2.8c.94.249 1.634 1.123 1.634 2.165a2.226 2.226 0 0 1-1.635 2.164z"/><rect width="19.616" height="7.272" x="61.986" y="3.307" fill="var(--fill-0, white)" rx="1.068"/></svg>
